assets/sonr-icons/image.svg

<svg xmlns="http://www.w3.org/2000/svg" width="24" height="24" fill="none" viewBox="0 0 24 24"><path fill="#000" d="M3.20402 17.313C3.13102 16.996 3.08702 16.663 3.05802 16.309C3.02802 15.946 3.01402 15.54 3.00702 15.083L5.42902 13.585C5.75902 13.38 6.09002 13.175 6.46402 13.078C6.79002 12.994 7.13002 12.977 7.46302 13.028C7.84402 13.086 8.19502 13.257 8.54402 13.428L9.15502 13.726C9.68502 13.983 9.74802 14 9.79002 14.006C9.86102 14.016 9.93302 14.01 10.002 13.988C10.042 13.975 10.102 13.948 10.581 13.606L13.18 11.75C13.564 11.475 13.95 11.198 14.395 11.079C14.783 10.975 15.189 10.967 15.581 11.053C16.03 11.153 16.428 11.413 16.823 11.672L16.919 11.735L21.001 14.394C20.999 15.139 20.987 15.771 20.944 16.307C20.933 16.446 20.918 16.583 20.902 16.717L15.828 13.41C15.265 13.043 15.195 13.015 15.149 13.006C15.071 12.989 14.989 12.99 14.912 13.011C14.866 13.023 14.797 13.054 14.25 13.444L11.663 15.291C11.324 15.534 10.984 15.778 10.591 15.899C10.247 16.005 9.88602 16.035 9.53002 15.988C9.12202 15.934 8.74602 15.75 8.37102 15.567L7.75302 15.266C7.26202 15.027 7.20302 15.01 7.16402 15.004C7.09702 14.994 7.03002 14.997 6.96402 15.014C6.92502 15.024 6.86902 15.046 6.40402 15.333L3.20602 17.311L3.20402 17.313ZM11 9C11 10.105 10.104 11 9.00002 11C7.89602 11 7.00002 10.104 7.00002 9C7.00002 7.895 7.89502 7 9.00002 7C10.105 7 11 7.896 11 9Z"/><path fill="#000" d="M10.357 3H13.643C14.727 3 15.601 3 16.308 3.058C17.037 3.117 17.677 3.243 18.269 3.546C19.21 4.025 19.975 4.79 20.454 5.731C20.756 6.323 20.881 6.963 20.941 7.692C20.999 8.4 20.999 9.274 20.999 10.358V13.644C20.999 14.728 20.999 15.602 20.941 16.309C20.882 17.038 20.756 17.678 20.454 18.27C19.975 19.211 19.21 19.976 18.269 20.455C17.677 20.757 17.037 20.883 16.308 20.943C15.6 21.001 14.726 21.001 13.643 21.001H10.357C9.273 21.001 8.399 21.001 7.692 20.943C6.963 20.884 6.323 20.758 5.731 20.455C4.79 19.976 4.026 19.211 3.546 18.27C3.245 17.678 3.118 17.038 3.058 16.309C3 15.601 3 14.727 3 13.644V10.358C3 9.274 3 8.4 3.058 7.692C3.117 6.963 3.243 6.323 3.546 5.731C4.025 4.79 4.79 4.026 5.731 3.546C6.323 3.245 6.963 3.118 7.692 3.058C8.4 3 9.274 3 10.357 3ZM7.854 5.051C7.249 5.1 6.901 5.193 6.637 5.327C6.072 5.614 5.613 6.073 5.326 6.638C5.192 6.901 5.1 7.249 5.05 7.854C5 8.47 4.999 9.263 4.999 10.399V13.599C4.999 14.735 5 15.528 5.05 16.145C5.1 16.75 5.192 17.097 5.326 17.361C5.613 17.926 6.072 18.385 6.637 18.672C6.9 18.806 7.248 18.898 7.854 18.948C8.47 18.998 9.263 18.999 10.399 18.999H13.599C14.735 18.999 15.528 18.998 16.145 18.948C16.75 18.898 17.098 18.806 17.361 18.672C17.926 18.385 18.385 17.926 18.672 17.361C18.806 17.098 18.899 16.75 18.948 16.145C18.998 15.528 18.999 14.736 18.999 13.599V10.399C18.999 9.263 18.998 8.47 18.948 7.854C18.899 7.249 18.806 6.901 18.672 6.638C18.385 6.073 17.926 5.614 17.361 5.327C17.098 5.193 16.75 5.101 16.145 5.051C15.528 5.001 14.736 5 13.6 5H10.4C9.264 5 8.471 5.001 7.854 5.051Z"/></svg>

<svg xmlns="http://www.w3.org/2000/svg" width="24" height="24" fill="none"><path fill="currentColor" d="M3.204 17.313a7 7 0 0 1-.146-1.004c-.03-.363-.044-.769-.051-1.226l2.422-1.498c.33-.205.661-.41 1.035-.507.326-.084.666-.101.999-.05.381.058.732.229 1.081.4l.611.298c.53.257.593.274.635.28q.107.015.212-.018c.04-.013.1-.04.579-.382l2.599-1.856c.384-.275.77-.552 1.215-.671a2.5 2.5 0 0 1 1.186-.026c.449.1.847.36 1.242.619l.096.063 4.082 2.659a26 26 0 0 1-.057 1.913q-.017.209-.042.41l-5.074-3.307c-.563-.367-.633-.395-.679-.404a.5.5 0 0 0-.237.005c-.046.012-.115.043-.662.433l-2.587 1.847c-.339.243-.679.487-1.072.608a2.5 2.5 0 0 1-1.061.089c-.408-.054-.784-.238-1.159-.421l-.618-.301c-.491-.239-.55-.256-.589-.262a.5.5 0 0 0-.2.01c-.039.01-.095.032-.56.319l-3.198 1.978zM11 9a2 2 0 1 1-4 0 2 2 0 0 1 4 0"/><path fill="currentColor" d="M10.357 3h3.286c1.084 0 1.958 0 2.665.058.729.059 1.369.185 1.961.488a5 5 0 0 1 2.185 2.185c.302.592.427 1.232.487 1.961.058.708.058 1.582.058 2.666v3.286c0 1.084 0 1.958-.058 2.665-.059.729-.185 1.369-.487 1.961a5 5 0 0 1-2.185 2.185c-.592.302-1.232.428-1.961.488-.708.058-1.582.058-2.665.058h-3.286c-1.084 0-1.958 0-2.665-.058-.729-.059-1.369-.185-1.961-.488a5 5 0 0 1-2.185-2.185c-.301-.592-.428-1.232-.488-1.961C3 15.601 3 14.727 3 13.644v-3.286c0-1.084 0-1.958.058-2.666.059-.729.185-1.369.488-1.961a5 5 0 0 1 2.185-2.185c.592-.301 1.232-.428 1.961-.488C8.4 3 9.274 3 10.357 3M7.854 5.051c-.605.049-.953.142-1.217.276a3 3 0 0 0-1.311 1.311c-.134.263-.226.611-.276 1.216-.05.616-.051 1.409-.051 2.545v3.2c0 1.136.001 1.929.051 2.546.05.605.142.952.276 1.216a3 3 0 0 0 1.311 1.311c.263.134.611.226 1.217.276.616.05 1.409.051 2.545.051h3.2c1.136 0 1.929-.001 2.546-.051.605-.05.953-.142 1.216-.276a3 3 0 0 0 1.311-1.311c.134-.263.227-.611.276-1.216.05-.617.051-1.409.051-2.546v-3.2c0-1.136-.001-1.929-.051-2.545-.049-.605-.142-.953-.276-1.216a3 3 0 0 0-1.311-1.311c-.263-.134-.611-.226-1.216-.276C15.528 5.001 14.736 5 13.6 5h-3.2c-1.136 0-1.929.001-2.546.051"/></svg>
